X: 26323
T: Men Of Destiny
R: reel
M: 4/4
K: Dminor
DAAD GGDF|zDFG FECA,|DAAD GG D/E/G|FECA, D4:|
|:DAAG c2 CB|BCAB AGFA|DAAG c2 B/A/G|AFEF D4:|

